X:5795
T:Sawney Dear
O:england
M:2/4
L:1/8
K:G
G/2A/2B EE | EE EE | G/2A/2B EE | c2BA |\
GB AB | GB EG | FD FG | A2 GF :|
|:GA Bc | de dB | GA Bc | d2 cd |\
ec dB | cA BG | EA AB | c2 BA :|
